svgs/light/speaker.svg

<svg xmlns="http://www.w3.org/2000/svg" viewBox="0 0 384 512"><!-- Font Awesome Pro 6.0.0-alpha2 by @fontawesome - https://fontawesome.com License - https://fontawesome.com/license (Commercial License) --><path d="M192 192C227.375 192 256 163.375 256 128S227.375 64 192 64S128 92.625 128 128S156.625 192 192 192ZM192 96C209.625 96 224 110.375 224 128S209.625 160 192 160S160 145.625 160 128S174.375 96 192 96ZM192 224C130.125 224 80 274.125 80 336S130.125 448 192 448S304 397.875 304 336S253.875 224 192 224ZM192 416C147.875 416 112 380.125 112 336S147.875 256 192 256S272 291.875 272 336S236.125 416 192 416ZM320 0H64C28.654 0 0 28.652 0 64V448C0 483.346 28.654 512 64 512H320C355.346 512 384 483.346 384 448V64C384 28.652 355.346 0 320 0ZM352 448C352 465.672 337.674 480 320 480H64C46.326 480 32 465.672 32 448V64C32 46.326 46.326 32 64 32H320C337.674 32 352 46.326 352 64V448ZM192 312C178.781 312 168 322.781 168 336S178.781 360 192 360S216 349.219 216 336S205.219 312 192 312Z"/></svg>

<svg xmlns="http://www.w3.org/2000/svg" viewBox="0 0 384 512"><!--! Font Awesome Pro 6.3.0 by @fontawesome - https://fontawesome.com License - https://fontawesome.com/license (Commercial License) Copyright 2023 Fonticons, Inc. --><path d="M192 192c35.38 0 64-28.62 64-64s-28.62-64-64-64S128 92.63 128 128S156.6 192 192 192zM192 96c17.62 0 32 14.38 32 32s-14.38 32-32 32S160 145.6 160 128S174.4 96 192 96zM192 224c-61.88 0-112 50.13-112 112S130.1 448 192 448s112-50.13 112-112S253.9 224 192 224zM192 416c-44.13 0-80-35.88-80-80S147.9 256 192 256s80 35.88 80 80S236.1 416 192 416zM320 0H64C28.65 0 0 28.65 0 64v384c0 35.35 28.65 64 64 64h256c35.35 0 64-28.65 64-64V64C384 28.65 355.3 0 320 0zM352 448c0 17.67-14.33 32-32 32H64c-17.67 0-32-14.33-32-32V64c0-17.67 14.33-32 32-32h256c17.67 0 32 14.33 32 32V448zM192 312c-13.22 0-24 10.78-24 24s10.78 24 24 24s24-10.78 24-24S205.2 312 192 312z"/></svg>
